X: 678
T: Eviç Aranağme (Sofyan)
C: ?
O: Turkey
F: http://compmusic.upf.edu/node/140
N: evic--aranagme--sofyan--1--
N: makam= evic
N: form= aranagme
N: usul= sofyan = 4/4
M: 4/4
L: 1/16
K: C _1/4B ^f ^c 
Q: 1/4=78
%%MIDI tuningsystem comma53
z4 dda2 {a}g2=f2 e2d2  | de=fg efde =c3/2d/c{d}B A4  | 
w:   |   | 
{B}A{B}G{A}F{G}^E F2d4d2 A4  | F4 G2AB AGF^E F4  | \
w:   |   | 
z4 dda2 {a}g2=f2 e2d2  | 
w:   | 
de=fg efde =c3/2d/c{d}B A4  | {B}A{B}G{A}F{G}^E F2d4d2 A4  | 
w:   |   | 
F4 G2AB AGF^E F4  | |


